usr/share/icons/Yaru-Cinnamon/16x16/legacy/edit-cut.svg

<svg xmlns="http://www.w3.org/2000/svg" width="16" height="15.974" version="1.1">
 <g font-family="Ubuntu" font-size="33.109" font-weight="500" letter-spacing="0" text-anchor="middle" word-spacing="0" style="fill:#4d4d4d">
  <path d="M6.156.487l-.004.002c-.054 0-.125.005-.213.014a1.78 1.78 0 0 0-.295.056.632.632 0 0 0-.233.108.373.373 0 0 0-.123.158.447.447 0 0 0-.036.2c.003.074.022.151.038.237.369 2.056.71 4.119 1.053 6.18l.838-3.128zM7.5 5.502l-.913 3.406.038.23 1.35 2.165.654 2.443c.088.329.216.616.384.861s.365.44.591.584c.227.144.479.236.757.275.272.041.557.021.855-.058.297-.08.553-.206.769-.377a1.9 1.9 0 0 0 .51-.615c.123-.238.2-.505.228-.803.023-.296-.01-.609-.098-.938a2.712 2.712 0 0 0-.383-.853 2.164 2.164 0 0 0-.599-.582 1.888 1.888 0 0 0-.754-.267 1.945 1.945 0 0 0-.847.056c-.214.064-.42.163-.666.14a.52.52 0 0 1-.236-.08.588.588 0 0 1-.167-.187 1.656 1.656 0 0 1-.107-.301zm0 2.485a.525.525 0 0 1 .525.524.525.525 0 0 1-.525.525.525.525 0 0 1-.525-.525.525.525 0 0 1 .525-.524zm2.998 3.84a.888.888 0 0 1 .615.204c.239.192.414.495.525.909.112.419.113.774.004 1.065a.91.91 0 0 1-.65.567c-.319.085-.598.03-.839-.168-.246-.196-.425-.503-.537-.923-.11-.414-.108-.764.008-1.051.11-.291.324-.48.642-.565.08-.021.157-.034.232-.038z" style="fill:#4d4d4d"/>
  <path d="M8.844.487v.002h-.001L8.52 1.688h.001L6.134 10.6a1.66 1.66 0 0 1-.107.301.588.588 0 0 1-.167.187.514.514 0 0 1-.236.08c-.245.023-.452-.077-.667-.14a1.945 1.945 0 0 0-.846-.056 1.887 1.887 0 0 0-.754.267 2.164 2.164 0 0 0-.6.582c-.166.24-.294.524-.382.853a2.784 2.784 0 0 0-.098.938c.029.298.105.565.229.803a1.9 1.9 0 0 0 .51.615c.215.171.471.297.768.376.298.08.583.1.855.059.278-.04.53-.131.757-.276.226-.144.423-.338.59-.583.169-.245.297-.532.385-.861l.655-2.443 1.349-2.166c.479-2.618.825-5.262 1.33-7.875.016-.085.034-.163.037-.237a.515.515 0 0 0-.035-.2.375.375 0 0 0-.123-.158A.63.63 0 0 0 9.35.56a1.802 1.802 0 0 0-.296-.056A2.842 2.842 0 0 0 8.85.489zM7.5 7.987a.525.525 0 0 1 .525.524.525.525 0 0 1-.525.525.525.525 0 0 1-.525-.525.525.525 0 0 1 .525-.524zm-2.998 3.84c.075.004.152.017.232.038.318.085.532.274.642.565.116.287.119.637.008 1.051-.112.42-.291.727-.537.923-.24.197-.52.253-.839.168a.91.91 0 0 1-.65-.567c-.11-.29-.108-.646.004-1.065.111-.414.286-.717.525-.91a.888.888 0 0 1 .615-.203z" style="fill:#4d4d4d"/>
 </g>
</svg>

<?xml version="1.0" encoding="UTF-8" standalone="no"?>
<svg
   xmlns:dc="http://purl.org/dc/elements/1.1/"
   xmlns:cc="http://creativecommons.org/ns#"
   xmlns:rdf="http://www.w3.org/1999/02/22-rdf-syntax-ns#"
   xmlns:svg="http://www.w3.org/2000/svg"
   xmlns="http://www.w3.org/2000/svg"
   xmlns:sodipodi="http://sodipodi.sourceforge.net/DTD/sodipodi-0.dtd"
   xmlns:inkscape="http://www.inkscape.org/namespaces/inkscape"
   height="15.974"
   width="16"
   version="1.1"
   id="svg821"
   sodipodi:docname="edit-cut.svg"
   inkscape:version="0.92.4 (5da689c313, 2019-01-14)">
  <metadata
     id="metadata827">
    <rdf:RDF>
      <cc:Work
         rdf:about="">
        <dc:format>image/svg+xml</dc:format>
        <dc:type
           rdf:resource="http://purl.org/dc/dcmitype/StillImage" />
      </cc:Work>
    </rdf:RDF>
  </metadata>
  <defs
     id="defs825" />
  <sodipodi:namedview
     pagecolor="#ffffff"
     bordercolor="#666666"
     borderopacity="1"
     objecttolerance="10"
     gridtolerance="10"
     guidetolerance="10"
     inkscape:pageopacity="0"
     inkscape:pageshadow="2"
     inkscape:window-width="1294"
     inkscape:window-height="704"
     id="namedview823"
     showgrid="false"
     inkscape:zoom="2"
     inkscape:cx="0.5625"
     inkscape:cy="1.862"
     inkscape:window-x="72"
     inkscape:window-y="27"
     inkscape:window-maximized="1"
     inkscape:current-layer="svg821">
    <inkscape:grid
       type="xygrid"
       id="grid8809" />
  </sodipodi:namedview>
  <g
     font-weight="500"
     font-size="33.109"
     letter-spacing="0"
     word-spacing="0"
     id="g819-3"
     style="font-weight:500;font-size:33.10900116px;font-family:Ubuntu;letter-spacing:0;word-spacing:0;text-anchor:middle;opacity:0.7;fill:#000000;fill-opacity:1;stroke:#000000;stroke-width:2.02511263;stroke-linejoin:round;stroke-miterlimit:4;stroke-dasharray:none"
     transform="matrix(1.0450028,0,0,0.93334923,-0.33803738,0.55366398)">
    <path
       d="M 6.156,0.487 6.152,0.489 c -0.054,0 -0.125,0.005 -0.213,0.014 A 1.78,1.78 0 0 0 5.644,0.559 0.632,0.632 0 0 0 5.411,0.667 0.373,0.373 0 0 0 5.288,0.825 0.447,0.447 0 0 0 5.252,1.025 C 5.255,1.099 5.274,1.176 5.29,1.262 5.659,3.318 6,5.381 6.343,7.442 L 7.181,4.314 Z M 7.5,5.502 6.587,8.908 l 0.038,0.23 1.35,2.165 0.654,2.443 c 0.088,0.329 0.216,0.616 0.384,0.861 0.168,0.245 0.365,0.44 0.591,0.584 0.227,0.144 0.479,0.236 0.757,0.275 0.272,0.041 0.557,0.021 0.855,-0.058 0.297,-0.08 0.553,-0.206 0.769,-0.377 a 1.9,1.9 0 0 0 0.51,-0.615 c 0.123,-0.238 0.2,-0.505 0.228,-0.803 0.023,-0.296 -0.01,-0.609 -0.098,-0.938 a 2.712,2.712 0 0 0 -0.383,-0.853 2.164,2.164 0 0 0 -0.599,-0.582 1.888,1.888 0 0 0 -0.754,-0.267 1.945,1.945 0 0 0 -0.847,0.056 c -0.214,0.064 -0.42,0.163 -0.666,0.14 A 0.52,0.52 0 0 1 9.14,11.089 0.588,0.588 0 0 1 8.973,10.902 1.656,1.656 0 0 1 8.866,10.601 Z m 0,2.485 A 0.525,0.525 0 0 1 8.025,8.511 0.525,0.525 0 0 1 7.5,9.036 0.525,0.525 0 0 1 6.975,8.511 0.525,0.525 0 0 1 7.5,7.987 Z m 2.998,3.84 a 0.888,0.888 0 0 1 0.615,0.204 c 0.239,0.192 0.414,0.495 0.525,0.909 0.112,0.419 0.113,0.774 0.004,1.065 a 0.91,0.91 0 0 1 -0.65,0.567 c -0.319,0.085 -0.598,0.03 -0.839,-0.168 C 9.907,14.208 9.728,13.901 9.616,13.481 9.506,13.067 9.508,12.717 9.624,12.43 c 0.11,-0.291 0.324,-0.48 0.642,-0.565 0.08,-0.021 0.157,-0.034 0.232,-0.038 z"
       style="line-height:125%;-inkscape-font-specification:'Ubuntu Medium';text-align:center;fill:#000000;fill-opacity:1;stroke:#000000;stroke-width:2.02511263;stroke-linejoin:round;stroke-miterlimit:4;stroke-dasharray:none"
       id="path815-2"
       inkscape:connector-curvature="0" />
    <path
       d="M 8.844,0.487 V 0.489 H 8.843 L 8.52,1.688 H 8.521 L 6.134,10.6 A 1.66,1.66 0 0 1 6.027,10.901 0.588,0.588 0 0 1 5.86,11.088 0.514,0.514 0 0 1 5.624,11.168 C 5.379,11.191 5.172,11.091 4.957,11.028 a 1.945,1.945 0 0 0 -0.846,-0.056 1.887,1.887 0 0 0 -0.754,0.267 2.164,2.164 0 0 0 -0.6,0.582 c -0.166,0.24 -0.294,0.524 -0.382,0.853 a 2.784,2.784 0 0 0 -0.098,0.938 c 0.029,0.298 0.105,0.565 0.229,0.803 a 1.9,1.9 0 0 0 0.51,0.615 c 0.215,0.171 0.471,0.297 0.768,0.376 0.298,0.08 0.583,0.1 0.855,0.059 0.278,-0.04 0.53,-0.131 0.757,-0.276 0.226,-0.144 0.423,-0.338 0.59,-0.583 0.169,-0.245 0.297,-0.532 0.385,-0.861 L 7.026,11.302 8.375,9.136 C 8.854,6.518 9.2,3.874 9.705,1.261 9.721,1.176 9.739,1.098 9.742,1.024 A 0.515,0.515 0 0 0 9.707,0.824 0.375,0.375 0 0 0 9.584,0.666 0.63,0.63 0 0 0 9.35,0.56 1.802,1.802 0 0 0 9.054,0.504 2.842,2.842 0 0 0 8.85,0.489 Z M 7.5,7.987 A 0.525,0.525 0 0 1 8.025,8.511 0.525,0.525 0 0 1 7.5,9.036 0.525,0.525 0 0 1 6.975,8.511 0.525,0.525 0 0 1 7.5,7.987 Z m -2.998,3.84 c 0.075,0.004 0.152,0.017 0.232,0.038 0.318,0.085 0.532,0.274 0.642,0.565 0.116,0.287 0.119,0.637 0.008,1.051 -0.112,0.42 -0.291,0.727 -0.537,0.923 -0.24,0.197 -0.52,0.253 -0.839,0.168 A 0.91,0.91 0 0 1 3.358,14.005 C 3.248,13.715 3.25,13.359 3.362,12.94 3.473,12.526 3.648,12.223 3.887,12.03 a 0.888,0.888 0 0 1 0.615,-0.203 z"
       style="line-height:125%;-inkscape-font-specification:'Ubuntu Medium';text-align:center;fill:#000000;fill-opacity:1;stroke:#000000;stroke-width:2.02511263;stroke-linejoin:round;stroke-miterlimit:4;stroke-dasharray:none"
       id="path817-4"
       inkscape:connector-curvature="0" />
  </g>
  <g
     font-weight="500"
     font-size="33.109"
     letter-spacing="0"
     word-spacing="0"
     id="g819"
     style="font-weight:500;font-size:33.10900116px;font-family:Ubuntu;letter-spacing:0;word-spacing:0;text-anchor:middle;fill:#e3dfd5;fill-opacity:1;stroke-width:0.97822255"
     transform="matrix(1.0450028,0,0,0.93334923,-0.33803735,0.55366398)">
    <path
       d="M 6.156,0.487 6.152,0.489 c -0.054,0 -0.125,0.005 -0.213,0.014 A 1.78,1.78 0 0 0 5.644,0.559 0.632,0.632 0 0 0 5.411,0.667 0.373,0.373 0 0 0 5.288,0.825 0.447,0.447 0 0 0 5.252,1.025 C 5.255,1.099 5.274,1.176 5.29,1.262 5.659,3.318 6,5.381 6.343,7.442 L 7.181,4.314 Z M 7.5,5.502 6.587,8.908 l 0.038,0.23 1.35,2.165 0.654,2.443 c 0.088,0.329 0.216,0.616 0.384,0.861 0.168,0.245 0.365,0.44 0.591,0.584 0.227,0.144 0.479,0.236 0.757,0.275 0.272,0.041 0.557,0.021 0.855,-0.058 0.297,-0.08 0.553,-0.206 0.769,-0.377 a 1.9,1.9 0 0 0 0.51,-0.615 c 0.123,-0.238 0.2,-0.505 0.228,-0.803 0.023,-0.296 -0.01,-0.609 -0.098,-0.938 a 2.712,2.712 0 0 0 -0.383,-0.853 2.164,2.164 0 0 0 -0.599,-0.582 1.888,1.888 0 0 0 -0.754,-0.267 1.945,1.945 0 0 0 -0.847,0.056 c -0.214,0.064 -0.42,0.163 -0.666,0.14 A 0.52,0.52 0 0 1 9.14,11.089 0.588,0.588 0 0 1 8.973,10.902 1.656,1.656 0 0 1 8.866,10.601 Z m 0,2.485 A 0.525,0.525 0 0 1 8.025,8.511 0.525,0.525 0 0 1 7.5,9.036 0.525,0.525 0 0 1 6.975,8.511 0.525,0.525 0 0 1 7.5,7.987 Z m 2.998,3.84 a 0.888,0.888 0 0 1 0.615,0.204 c 0.239,0.192 0.414,0.495 0.525,0.909 0.112,0.419 0.113,0.774 0.004,1.065 a 0.91,0.91 0 0 1 -0.65,0.567 c -0.319,0.085 -0.598,0.03 -0.839,-0.168 C 9.907,14.208 9.728,13.901 9.616,13.481 9.506,13.067 9.508,12.717 9.624,12.43 c 0.11,-0.291 0.324,-0.48 0.642,-0.565 0.08,-0.021 0.157,-0.034 0.232,-0.038 z"
       style="line-height:125%;-inkscape-font-specification:'Ubuntu Medium';text-align:center;fill:#e3dfd5;fill-opacity:1;stroke-width:0.97822255"
       id="path815"
       inkscape:connector-curvature="0" />
    <path
       d="M 8.844,0.487 V 0.489 H 8.843 L 8.52,1.688 H 8.521 L 6.134,10.6 A 1.66,1.66 0 0 1 6.027,10.901 0.588,0.588 0 0 1 5.86,11.088 0.514,0.514 0 0 1 5.624,11.168 C 5.379,11.191 5.172,11.091 4.957,11.028 a 1.945,1.945 0 0 0 -0.846,-0.056 1.887,1.887 0 0 0 -0.754,0.267 2.164,2.164 0 0 0 -0.6,0.582 c -0.166,0.24 -0.294,0.524 -0.382,0.853 a 2.784,2.784 0 0 0 -0.098,0.938 c 0.029,0.298 0.105,0.565 0.229,0.803 a 1.9,1.9 0 0 0 0.51,0.615 c 0.215,0.171 0.471,0.297 0.768,0.376 0.298,0.08 0.583,0.1 0.855,0.059 0.278,-0.04 0.53,-0.131 0.757,-0.276 0.226,-0.144 0.423,-0.338 0.59,-0.583 0.169,-0.245 0.297,-0.532 0.385,-0.861 L 7.026,11.302 8.375,9.136 C 8.854,6.518 9.2,3.874 9.705,1.261 9.721,1.176 9.739,1.098 9.742,1.024 A 0.515,0.515 0 0 0 9.707,0.824 0.375,0.375 0 0 0 9.584,0.666 0.63,0.63 0 0 0 9.35,0.56 1.802,1.802 0 0 0 9.054,0.504 2.842,2.842 0 0 0 8.85,0.489 Z M 7.5,7.987 A 0.525,0.525 0 0 1 8.025,8.511 0.525,0.525 0 0 1 7.5,9.036 0.525,0.525 0 0 1 6.975,8.511 0.525,0.525 0 0 1 7.5,7.987 Z m -2.998,3.84 c 0.075,0.004 0.152,0.017 0.232,0.038 0.318,0.085 0.532,0.274 0.642,0.565 0.116,0.287 0.119,0.637 0.008,1.051 -0.112,0.42 -0.291,0.727 -0.537,0.923 -0.24,0.197 -0.52,0.253 -0.839,0.168 A 0.91,0.91 0 0 1 3.358,14.005 C 3.248,13.715 3.25,13.359 3.362,12.94 3.473,12.526 3.648,12.223 3.887,12.03 a 0.888,0.888 0 0 1 0.615,-0.203 z"
       style="line-height:125%;-inkscape-font-specification:'Ubuntu Medium';text-align:center;fill:#e3dfd5;fill-opacity:1;stroke-width:0.97822255"
       id="path817"
       inkscape:connector-curvature="0" />
  </g>
</svg>
